X: 20
T: Bear Dance Song (d)
N: Derived from pawnee20.krn
O: Oklahoma, U.S.A.
N: from Pawnee Music by Frances Densmore, 1926
Z: transcribed to **kern format by David Huron, August 2000
C: Skidi and Chaui Bands, 1919
L: 1/4
M: 2/4
Q: 1/4=88
K: C clef=bass
%%linebreak <none>
E/ E/ [I:setbarnb 1]| 
EC[M:3/4] | 
EzE/ E/[M:2/4] | 
EC | 
A,z[M:3/4] | 
EzA,[M:2/4] | 
EE | 
EC[M:3/4] | 
EzE/ C/ | 
ECA, | 
E/< C/ C/ z/ A,/ A,/ | 
A,G,E, | 
G,z!tenuto!A,/ G,/ | 
A,G,E, | 
G,zE,/ E,/ | 
E,E,C, | 
E,zD,/ D,/ | 
D,C,A,, | 
A,,3 |]  



